assets/svg/logo_flight.svg

<svg fill="none" height="40" viewBox="0 0 124 40" width="124" xmlns="http://www.w3.org/2000/svg"><path d="m11.6918 0c-4.06549 0-5.53974.422832-7.02602 1.21682-1.48629.79399-2.65273 1.95914-3.4476 3.44377-.794878 1.48464-1.21818 2.95724-1.21818 7.01821v16.2521c0 4.061.423302 5.5336 1.21818 7.0183.79487 1.4846 1.96131 2.6497 3.4476 3.4437 1.48628.794 2.96053 1.2169 7.02602 1.2169h16.2702c4.0655 0 5.5398-.4229 7.026-1.2169 1.4863-.794 2.6528-1.9591 3.4476-3.4437.7949-1.4847 1.2182-2.9573 1.2182-7.0183v-16.2521c0-4.06097-.4233-5.53357-1.2182-7.01821-.7948-1.48463-1.9613-2.64978-3.4476-3.44377-1.4862-.793988-2.9605-1.21682-7.026-1.21682z" fill="#844ed7"/><path d="m7.68256 7.92188h3.16404c.5073 0 .7888.22082 1.0055.47192 1.0184 1.17995 4.5853 5.313 10.7006 12.3992l-6.8877.002c-2.2993.0007-4.3351-1.4813-5.0343-3.665z" fill="#fff"/><path d="m24.3331 22.7756h-16.19272c-.52405 0-.55387.5435-.31191.7822.09871.0829.24734.2052.4436.3599.56168.4409 1.27214.957 2.09653 1.5061 2.9858 1.974 8.3116 4.8618 15.2167 5.9882 2.2551.3424 4.3286.4637 6.0573.4739.1418-.0009.2843-.003.4271-.0056z" fill="#fff" opacity=".7"/><g fill="#4d5f79"><path d="m47 6.19702v12.60168h2.7804v-4.3566h4.5486v-2.394h-4.5486v-3.40277h4.5486v-2.44831z"/><path d="m63.8369 16.2783v2.5204h-6.5367v-12.60168h2.9333v10.08128z"/><path d="m65.8177 18.7987h2.7731v-12.60168h-2.7731z"/><path d="m78.3481 12.3269h6.506v2.1693h-1.2902c-.1319.7172-.3586 1.3686-.6813 1.954-.3225.5859-.7469 1.0877-1.2724 1.5059-.5261.4186-1.1445.7442-1.8553.9771-.7111.2333-1.5143.3496-2.4106.3496-1.0516 0-1.9867-.1793-2.805-.5376-.8187-.3587-1.5056-.8396-2.0613-1.4433-.5556-.6036-.9801-1.3027-1.2726-2.0977-.2929-.7947-.439-1.6343-.439-2.5189 0-.8606.1493-1.688.448-2.4828.2984-.79508.7316-1.49711 1.2994-2.10665.5675-.60972 1.2575-1.0963 2.0703-1.4611.8125-.36429 1.7324-.54686 2.7602-.54686.8245 0 1.58.11663 2.2673.34939.687.23327 1.2815.54994 1.7835.95037.5019.4006.902.86679 1.201 1.39841.2984.53196.4776 1.0968.5373 1.69414h-3.1004c-.048-.2509-.1437-.48995-.287-.71705-.1433-.22693-.3315-.42732-.5645-.60064-.2331-.17298-.505-.31068-.8156-.41242-.3108-.10139-.6572-.15208-1.0395-.15208-.5976 0-1.1176.11355-1.5594.34048-.4421.2271-.8156.53179-1.1204.9144-.3046.38241-.5318.82171-.6809 1.31761-.1497.4963-.224 1.0072-.224 1.5328 0 .5619.0776 1.0908.2329 1.5867s.391.9322.708 1.3088c.3164.3766.7168.6753 1.201.8962.4841.2215 1.0484.3318 1.6936.3318.442 0 .8363-.0629 1.183-.1882.3466-.1256.6454-.296.8962-.5111.2507-.2149.4541-.4631.6094-.744.1552-.2805.2567-.5765.3047-.8873h-2.2224z"/><path d="m93.9595 13.9763h-4.3378v4.9841h-2.9035v-12.54976h2.9035v5.07366h4.3378v-5.07366h2.8857v12.54976h-2.8857z"/><path d="m101.505 8.92059h-2.8317v-2.50995h8.5857v2.50995h-2.85v10.03961h-2.904z"/><path d="m53.6686 32.0253v2.5866h-6.6685v-12.9337h2.9924v10.3471z"/><path clip-rule="evenodd" d="m58.1389 34.381c.8496.3754 1.8102.5634 2.8816.5634s2.0287-.188 2.8724-.5634c.8434-.3756 1.5609-.8778 2.1521-1.5058.5911-.6284 1.0404-1.3519 1.3485-2.1712.3077-.819.4616-1.6721.4616-2.5589 0-.887-.1539-1.7398-.4616-2.5591-.3081-.819-.7574-1.5426-1.3485-2.1709-.5912-.6282-1.3087-1.13-2.1521-1.5058-.8437-.3757-1.801-.5636-2.8724-.5636s-2.032.1879-2.8816.5636c-.8498.3758-1.5702.8776-2.1613 1.5058-.5912.6283-1.0407 1.3519-1.3485 2.1709-.3079.8193-.4617 1.6721-.4617 2.5591 0 .8868.1538 1.7399.4617 2.5589.3078.8193.7573 1.5428 1.3485 2.1712.5911.628 1.3115 1.1302 2.1613 1.5058zm4.4701-2.4759c-.4681.228-.9974.3417-1.5885.3417s-1.1207-.1137-1.5885-.3417c-.4683-.2278-.8655-.5326-1.1916-.9147-.3265-.3815-.5758-.8189-.7481-1.3118-.1726-.4926-.2585-1.0038-.2585-1.5335 0-.5296.0859-1.0407.2585-1.5336.1723-.4925.4216-.93.7481-1.3119.3261-.3816.7233-.6864 1.1916-.9146.4678-.2277.9974-.3416 1.5885-.3416s1.1204.1139 1.5885.3416c.468.2282.8652.533 1.1916.9146.3262.3819.5756.8194.7481 1.3119.1722.4929.2585 1.004.2585 1.5336 0 .5297-.0863 1.0409-.2585 1.5335-.1725.4929-.4219.9303-.7481 1.3118-.3264.3821-.7236.6869-1.1916.9147z" fill-rule="evenodd"/><path d="m77.2205 27.7756h6.7053v2.2356h-1.3297c-.1358.7392-.3697 1.4106-.7021 2.0141-.3325.6036-.7698 1.1208-1.3116 1.5521-.5421.4312-1.1792.7667-1.9119 1.0069-.7329.2399-1.5608.3601-2.4845.3601-1.0837 0-2.0474-.1848-2.8909-.5542-.8438-.3696-1.5517-.8654-2.1243-1.4873-.5725-.6219-1.0099-1.3424-1.3114-2.1619-.302-.819-.4527-1.6843-.4527-2.5959 0-.8869.1539-1.7398.4618-2.559.3077-.819.7542-1.5427 1.3392-2.171.5849-.6282 1.296-1.13 2.1336-1.5058.8372-.3755 1.7853-.5636 2.8447-.5636.8498 0 1.6284.1202 2.3367.3604.7081.2401 1.3209.5667 1.838.9791.5173.4129.9298.8933 1.2376 1.4412.3077.5483.4925 1.1302.5543 1.7461h-3.1956c-.0494-.2586-.148-.5049-.2956-.7392-.1478-.2338-.3419-.4401-.5818-.619-.2403-.1782-.5204-.3199-.8406-.4247-.3203-.1046-.6775-.1571-1.0714-.1571-.616 0-1.1516.1172-1.6071.351-.4556.2343-.8406.5484-1.1544.9423-.3142.3944-.5483.8471-.7021 1.3582-.1541.511-.231 1.0378-.231 1.5796 0 .579.08 1.1242.2403 1.6352.1597.5113.4032.9607.7296 1.3488.3262.3879.7388.696 1.2376.9238.4988.2281 1.0808.3417 1.7455.3417.4557 0 .8622-.0646 1.2193-.1939.3569-.1293.6649-.3048.9237-.5266.2587-.2217.4678-.4772.6282-.7668.1598-.2893.2645-.594.3139-.9146h-2.2906z"/><path d="m93.0142 27.7756h6.7053v2.2356h-1.3299c-.1356.7392-.3695 1.4106-.702 2.0141-.3324.6036-.7697 1.1208-1.3115 1.5521-.5419.4312-1.1794.7667-1.9119 1.0069-.7329.2399-1.5608.3601-2.4844.3601-1.0838 0-2.0475-.1848-2.8908-.5542-.8438-.3696-1.5517-.8654-2.1246-1.4873-.5726-.6219-1.0098-1.3424-1.3113-2.1619-.302-.819-.4527-1.6843-.4527-2.5959 0-.8869.1539-1.7398.4616-2.559.3079-.819.7544-1.5427 1.3395-2.171.5846-.6282 1.2959-1.13 2.1335-1.5058.8372-.3755 1.7853-.5636 2.8448-.5636.8497 0 1.6284.1202 2.3366.3604.7081.2401 1.3207.5667 1.838.9791.5171.4129.9298.8933 1.2376 1.4412.3077.5483.4925 1.1302.5543 1.7461h-3.1956c-.0495-.2586-.148-.5049-.2958-.7392-.1477-.2338-.3417-.4401-.5818-.619-.24-.1782-.5204-.3199-.8405-.4247-.3204-.1046-.6774-.1571-1.0713-.1571-.6159 0-1.1516.1172-1.6071.351-.4558.2343-.8406.5484-1.1544.9423-.3141.3944-.5483.8471-.7021 1.3582-.1541.511-.2308 1.0378-.2308 1.5796 0 .579.0796 1.1242.2401 1.6352.1597.5113.403.9607.7294 1.3488.3264.3879.7392.696 1.2378.9238.4988.2281 1.0806.3417 1.7457.3417.4555 0 .862-.0646 1.219-.1939.3572-.1293.6652-.3048.9238-.5266.2587-.2217.4678-.4772.628-.7668.16-.2893.2647-.594.3141-.9146h-2.2906z"/><path d="m104.633 24.0803v2.9377h4.895v2.3466h-4.895v2.8453h4.895v2.4019h-7.888v-12.9336h7.888v2.4021z"/><path clip-rule="evenodd" d="m117.693 21.678h-5.431v12.9337h2.992v-3.5845h1.404l3.12 3.5845h3.473l-3.415-4.0834c.812-.3814 1.443-.9451 1.893-1.6904.449-.7454.674-1.5733.674-2.4853 0-.6282-.111-1.2254-.332-1.7922-.222-.5664-.539-1.0623-.952-1.4873-.413-.4251-.908-.7635-1.487-1.0163-.579-.2523-1.225-.3788-1.939-.3788zm.462 6.7255c-.259.1233-.542.1848-.85.1848h-2.051v-4.4713h2.051c.308 0 .591.0618.85.1848.258.1232.477.2865.655.4897.179.2033.317.4405.416.7113.098.2711.148.5543.148.8498 0 .2958-.05.5792-.148.85-.099.2711-.237.5081-.416.7113-.178.2033-.397.3667-.655.4896z" fill-rule="evenodd"/></g></svg>

<svg width="124" height="40" viewBox="0 0 124 40" fill="none" xmlns="http://www.w3.org/2000/svg">
<path d="M11.6918 0C7.62631 0 6.15206 0.422832 4.66578 1.21682C3.17949 2.01081 2.01305 3.17596 1.21818 4.66059C0.423302 6.14523 0 7.61783 0 11.6788L0 27.9309C0 31.9919 0.423302 33.4645 1.21818 34.9492C2.01305 36.4338 3.17949 37.5989 4.66578 38.3929C6.15206 39.1869 7.62631 39.6098 11.6918 39.6098H27.962C32.0275 39.6098 33.5018 39.1869 34.988 38.3929C36.4743 37.5989 37.6408 36.4338 38.4356 34.9492C39.2305 33.4645 39.6538 31.9919 39.6538 27.9309V11.6788C39.6538 7.61783 39.2305 6.14523 38.4356 4.66059C37.6408 3.17596 36.4743 2.01081 34.988 1.21682C33.5018 0.422832 32.0275 0 27.962 0L11.6918 0Z" fill="#844ED7"/>
<path d="M7.68256 7.92188H10.8466C11.3539 7.92188 11.6354 8.1427 11.8521 8.3938C12.8705 9.57375 16.4374 13.7068 22.5527 20.793L15.665 20.795C13.3657 20.7957 11.3299 19.3137 10.6307 17.13L7.68256 7.92188Z" fill="white"/>
<path opacity="0.7" d="M24.3331 22.7756H8.14038C7.61633 22.7756 7.58651 23.3191 7.82847 23.5578C7.92718 23.6407 8.07581 23.763 8.27207 23.9177C8.83375 24.3586 9.54421 24.8747 10.3686 25.4238C13.3544 27.3978 18.6802 30.2856 25.5853 31.412C27.8404 31.7544 29.9139 31.8757 31.6426 31.8859C31.7844 31.885 31.9269 31.8829 32.0697 31.8803L24.3331 22.7756Z" fill="white"/>
<path d="M47 6.19702V18.7987H49.7804V14.4421H54.329V12.0481H49.7804V8.64533H54.329V6.19702H47Z" fill="#4D5F79"/>
<path d="M63.8369 16.2783V18.7987H57.3002V6.19702H60.2335V16.2783H63.8369Z" fill="#4D5F79"/>
<path d="M65.8177 18.7987H68.5908V6.19702H65.8177V18.7987Z" fill="#4D5F79"/>
<path d="M78.3481 12.3269H84.8541V14.4962H83.5639C83.432 15.2134 83.2053 15.8648 82.8826 16.4502C82.5601 17.0361 82.1357 17.5379 81.6102 17.9561C81.0841 18.3747 80.4657 18.7003 79.7549 18.9332C79.0438 19.1665 78.2406 19.2828 77.3443 19.2828C76.2927 19.2828 75.3576 19.1035 74.5393 18.7452C73.7206 18.3865 73.0337 17.9056 72.478 17.3019C71.9224 16.6983 71.4979 15.9992 71.2054 15.2042C70.9125 14.4095 70.7664 13.5699 70.7664 12.6853C70.7664 11.8247 70.9157 10.9973 71.2144 10.2025C71.5128 9.40742 71.946 8.70539 72.5138 8.09585C73.0813 7.48613 73.7713 6.99955 74.5841 6.63475C75.3966 6.27046 76.3165 6.08789 77.3443 6.08789C78.1688 6.08789 78.9243 6.20452 79.6116 6.43728C80.2986 6.67055 80.8931 6.98722 81.3951 7.38765C81.897 7.78825 82.2971 8.25444 82.5961 8.78606C82.8945 9.31802 83.0737 9.88286 83.1334 10.4802H80.033C79.985 10.2293 79.8893 9.99025 79.746 9.76315C79.6027 9.53622 79.4145 9.33583 79.1815 9.16251C78.9484 8.98953 78.6765 8.85183 78.3659 8.75009C78.0551 8.6487 77.7087 8.59801 77.3264 8.59801C76.7288 8.59801 76.2088 8.71156 75.767 8.93849C75.3249 9.16559 74.9514 9.47028 74.6466 9.85289C74.342 10.2353 74.1148 10.6746 73.9657 11.1705C73.816 11.6668 73.7417 12.1777 73.7417 12.7033C73.7417 13.2652 73.8193 13.7941 73.9746 14.29C74.1299 14.7859 74.3656 15.2222 74.6826 15.5988C74.999 15.9754 75.3994 16.2741 75.8836 16.495C76.3677 16.7165 76.932 16.8268 77.5772 16.8268C78.0192 16.8268 78.4135 16.7639 78.7602 16.6386C79.1068 16.513 79.4056 16.3426 79.6564 16.1275C79.9071 15.9126 80.1105 15.6644 80.2658 15.3835C80.421 15.103 80.5225 14.807 80.5705 14.4962H78.3481V12.3269Z" fill="#4D5F79"/>
<path d="M93.9595 13.9763H89.6217V18.9604H86.7182V6.41064H89.6217V11.4843H93.9595V6.41064H96.8452V18.9604H93.9595V13.9763Z" fill="#4D5F79"/>
<path d="M101.505 8.92059H98.6733V6.41064H107.259V8.92059H104.409V18.9602H101.505V8.92059Z" fill="#4D5F79"/>
<path d="M53.6686 32.0253V34.6119H47.0001V21.6782H49.9925V32.0253H53.6686Z" fill="#4D5F79"/>
<path fill-rule="evenodd" clip-rule="evenodd" d="M58.1389 34.381C58.9885 34.7564 59.9491 34.9444 61.0205 34.9444C62.0919 34.9444 63.0492 34.7564 63.8929 34.381C64.7363 34.0054 65.4538 33.5032 66.045 32.8752C66.6361 32.2468 67.0854 31.5233 67.3935 30.704C67.7012 29.885 67.8551 29.0319 67.8551 28.1451C67.8551 27.2581 67.7012 26.4053 67.3935 25.586C67.0854 24.767 66.6361 24.0434 66.045 23.4151C65.4538 22.7869 64.7363 22.2851 63.8929 21.9093C63.0492 21.5336 62.0919 21.3457 61.0205 21.3457C59.9491 21.3457 58.9885 21.5336 58.1389 21.9093C57.2891 22.2851 56.5687 22.7869 55.9776 23.4151C55.3864 24.0434 54.9369 24.767 54.6291 25.586C54.3212 26.4053 54.1674 27.2581 54.1674 28.1451C54.1674 29.0319 54.3212 29.885 54.6291 30.704C54.9369 31.5233 55.3864 32.2468 55.9776 32.8752C56.5687 33.5032 57.2891 34.0054 58.1389 34.381ZM62.609 31.9051C62.1409 32.1331 61.6116 32.2468 61.0205 32.2468C60.4294 32.2468 59.8998 32.1331 59.432 31.9051C58.9637 31.6773 58.5665 31.3725 58.2404 30.9904C57.9139 30.6089 57.6646 30.1715 57.4923 29.6786C57.3197 29.186 57.2338 28.6748 57.2338 28.1451C57.2338 27.6155 57.3197 27.1044 57.4923 26.6115C57.6646 26.119 57.9139 25.6815 58.2404 25.2996C58.5665 24.918 58.9637 24.6132 59.432 24.385C59.8998 24.1573 60.4294 24.0434 61.0205 24.0434C61.6116 24.0434 62.1409 24.1573 62.609 24.385C63.077 24.6132 63.4742 24.918 63.8006 25.2996C64.1268 25.6815 64.3762 26.119 64.5487 26.6115C64.7209 27.1044 64.8072 27.6155 64.8072 28.1451C64.8072 28.6748 64.7209 29.186 64.5487 29.6786C64.3762 30.1715 64.1268 30.6089 63.8006 30.9904C63.4742 31.3725 63.077 31.6773 62.609 31.9051Z" fill="#4D5F79"/>
<path d="M77.2205 27.7756H83.9258V30.0112H82.5961C82.4603 30.7504 82.2264 31.4218 81.894 32.0253C81.5615 32.6289 81.1242 33.1461 80.5824 33.5774C80.0403 34.0086 79.4032 34.3441 78.6705 34.5843C77.9376 34.8242 77.1097 34.9444 76.186 34.9444C75.1023 34.9444 74.1386 34.7596 73.2951 34.3902C72.4513 34.0206 71.7434 33.5248 71.1708 32.9029C70.5983 32.281 70.1609 31.5605 69.8594 30.741C69.5574 29.922 69.4067 29.0567 69.4067 28.1451C69.4067 27.2582 69.5606 26.4053 69.8685 25.5861C70.1762 24.7671 70.6227 24.0434 71.2077 23.4151C71.7926 22.7869 72.5037 22.2851 73.3413 21.9093C74.1785 21.5338 75.1266 21.3457 76.186 21.3457C77.0358 21.3457 77.8144 21.4659 78.5227 21.7061C79.2308 21.9462 79.8436 22.2728 80.3607 22.6852C80.878 23.0981 81.2905 23.5785 81.5983 24.1264C81.906 24.6747 82.0908 25.2566 82.1526 25.8725H78.957C78.9076 25.6139 78.809 25.3676 78.6614 25.1333C78.5136 24.8995 78.3195 24.6932 78.0796 24.5143C77.8393 24.3361 77.5592 24.1944 77.239 24.0896C76.9187 23.985 76.5615 23.9325 76.1676 23.9325C75.5516 23.9325 75.016 24.0497 74.5605 24.2835C74.1049 24.5178 73.7199 24.8319 73.4061 25.2258C73.0919 25.6202 72.8578 26.0729 72.704 26.584C72.5499 27.095 72.473 27.6218 72.473 28.1636C72.473 28.7426 72.553 29.2878 72.7133 29.7988C72.873 30.3101 73.1165 30.7595 73.4429 31.1476C73.7691 31.5355 74.1817 31.8436 74.6805 32.0714C75.1793 32.2995 75.7613 32.4131 76.426 32.4131C76.8817 32.4131 77.2882 32.3485 77.6453 32.2192C78.0022 32.0899 78.3102 31.9144 78.569 31.6926C78.8277 31.4709 79.0368 31.2154 79.1972 30.9258C79.357 30.6365 79.4617 30.3318 79.5111 30.0112H77.2205V27.7756Z" fill="#4D5F79"/>
<path d="M93.0142 27.7756H99.7195V30.0112H98.3896C98.254 30.7504 98.0201 31.4218 97.6876 32.0253C97.3552 32.6289 96.9179 33.1461 96.3761 33.5774C95.8342 34.0086 95.1967 34.3441 94.4642 34.5843C93.7313 34.8242 92.9034 34.9444 91.9798 34.9444C90.896 34.9444 89.9323 34.7596 89.089 34.3902C88.2452 34.0206 87.5373 33.5248 86.9644 32.9029C86.3918 32.281 85.9546 31.5605 85.6531 30.741C85.3511 29.922 85.2004 29.0567 85.2004 28.1451C85.2004 27.2582 85.3543 26.4053 85.662 25.5861C85.9699 24.7671 86.4164 24.0434 87.0015 23.4151C87.5861 22.7869 88.2974 22.2851 89.135 21.9093C89.9722 21.5338 90.9203 21.3457 91.9798 21.3457C92.8295 21.3457 93.6082 21.4659 94.3164 21.7061C95.0245 21.9462 95.6371 22.2728 96.1544 22.6852C96.6715 23.0981 97.0842 23.5785 97.392 24.1264C97.6997 24.6747 97.8845 25.2566 97.9463 25.8725H94.7507C94.7012 25.6139 94.6027 25.3676 94.4549 25.1333C94.3072 24.8995 94.1132 24.6932 93.8731 24.5143C93.6331 24.3361 93.3527 24.1944 93.0326 24.0896C92.7122 23.985 92.3552 23.9325 91.9613 23.9325C91.3454 23.9325 90.8097 24.0497 90.3542 24.2835C89.8984 24.5178 89.5136 24.8319 89.1998 25.2258C88.8857 25.6202 88.6515 26.0729 88.4977 26.584C88.3436 27.095 88.2669 27.6218 88.2669 28.1636C88.2669 28.7426 88.3465 29.2878 88.507 29.7988C88.6667 30.3101 88.91 30.7595 89.2364 31.1476C89.5628 31.5355 89.9756 31.8436 90.4742 32.0714C90.973 32.2995 91.5548 32.4131 92.2199 32.4131C92.6754 32.4131 93.0819 32.3485 93.4389 32.2192C93.7961 32.0899 94.1041 31.9144 94.3627 31.6926C94.6214 31.4709 94.8305 31.2154 94.9907 30.9258C95.1507 30.6365 95.2554 30.3318 95.3048 30.0112H93.0142V27.7756Z" fill="#4D5F79"/>
<path d="M104.633 24.0803V27.018H109.528V29.3646H104.633V32.2099H109.528V34.6118H101.64V21.6782H109.528V24.0803H104.633Z" fill="#4D5F79"/>
<path fill-rule="evenodd" clip-rule="evenodd" d="M117.693 21.678H112.262V34.6117H115.254V31.0272H116.658L119.778 34.6117H123.251L119.836 30.5283C120.648 30.1469 121.279 29.5832 121.729 28.8379C122.178 28.0925 122.403 27.2646 122.403 26.3526C122.403 25.7244 122.292 25.1272 122.071 24.5604C121.849 23.994 121.532 23.4981 121.119 23.0731C120.706 22.648 120.211 22.3096 119.632 22.0568C119.053 21.8045 118.407 21.678 117.693 21.678ZM118.155 28.4035C117.896 28.5268 117.613 28.5883 117.305 28.5883H115.254V24.117H117.305C117.613 24.117 117.896 24.1788 118.155 24.3018C118.413 24.425 118.632 24.5883 118.81 24.7915C118.989 24.9948 119.127 25.232 119.226 25.5028C119.324 25.7739 119.374 26.0571 119.374 26.3526C119.374 26.6484 119.324 26.9318 119.226 27.2026C119.127 27.4737 118.989 27.7107 118.81 27.9139C118.632 28.1172 118.413 28.2806 118.155 28.4035Z" fill="#4D5F79"/>
</svg>
